svg/fluentui-system-icons/ic_fluent_database_multiple_20_filled.svg

<svg width="20" height="20" viewBox="0 0 20 20" fill="none" xmlns="http://www.w3.org/2000/svg">
<path d="M18 4C18 5.65685 15.3137 7 12 7C8.68629 7 6 5.65685 6 4C6 2.34315 8.68629 1 12 1C15.3137 1 18 2.34315 18 4ZM18 6.12029C17.6173 6.48234 17.1593 6.78102 16.6899 7.01575C15.4379 7.6417 13.7784 8 12 8C11.3775 8 10.7697 7.95611 10.1887 7.87221C11.1238 8.40006 11.9127 9.21347 11.9932 10.3138L12.0023 10.3056L12.0013 12.5531C12.0008 13.7321 12 15.5956 12 16.4994C12 16.6729 11.9822 16.8397 11.949 16.9999L12 17C15.3137 17 18 15.6569 18 14V6.12029ZM7.31015 7.01575L7.36019 7.04052C7.07956 7.0138 6.7922 7 6.5 7C6.33199 7 6.16519 7.00457 6 7.0136V6.12029C6.38273 6.48234 6.8407 6.78102 7.31015 7.01575ZM8.9998 8.42091C8.6567 8.29333 8.28025 8.19127 7.87926 8.11962C7.44461 8.04195 6.98112 8 6.5 8C4.01472 8 2 9.11929 2 10.5C2 11.8807 4.01472 13 6.5 13C8.98528 13 11 11.8807 11 10.5C11 9.63317 10.2059 8.86938 8.9998 8.42091ZM10.1676 13.1419C9.17853 13.6914 7.87987 14 6.5 14C5.12013 14 3.82147 13.6914 2.83238 13.1419C2.53996 12.9794 2.25486 12.7831 2 12.5538V16.4994C2 17.8802 4.01472 18.9994 6.5 18.9994C8.98528 18.9994 11 17.8802 11 16.4994C11 15.5953 11.0008 13.7315 11.0013 12.5526C10.7461 12.7824 10.4605 12.9792 10.1676 13.1419Z" fill="#212121"/>
</svg>

<svg xmlns="http://www.w3.org/2000/svg" width="20" height="20"><path d="M18 4c0 1.657-2.686 3-6 3S6 5.657 6 4s2.686-3 6-3 6 1.343 6 3Zm0 2.12c-.383.362-.84.661-1.31.896C15.438 7.642 13.778 8 12 8c-.623 0-1.23-.044-1.811-.128.935.528 1.724 1.341 1.804 2.442l.01-.008L12 12.553V16.5c0 .174-.018.34-.051.5H12c3.314 0 6-1.343 6-3V6.12Zm-10.69.896.05.025A9.08 9.08 0 0 0 6 7.014V6.12c.383.362.84.661 1.31.896ZM9 8.42a6.509 6.509 0 0 0-1.12-.301A7.86 7.86 0 0 0 6.5 8C4.015 8 2 9.12 2 10.5S4.015 13 6.5 13s4.5-1.12 4.5-2.5c0-.867-.794-1.63-2-2.08Zm1.168 4.72c-.99.55-2.288.859-3.668.859-1.38 0-2.679-.309-3.668-.858A4.556 4.556 0 0 1 2 12.554v3.945C2 17.88 4.015 19 6.5 19s4.5-1.12 4.5-2.5l.001-3.946a4.54 4.54 0 0 1-.833.589Z"/></svg>
